common/svg/status-success-icon.svg

<svg fill="none" height="20" viewBox="0 0 20 20" width="20" xmlns="http://www.w3.org/2000/svg"><path clip-rule="evenodd" d="m10 0c-5.5 0-10 4.5-10 10s4.5 10 10 10 10-4.5 10-10-4.5-10-10-10zm-1.33948 11.4142-2.09293-2.09297c-.39052-.39053-1.02368-.39053-1.41421 0-.39052.39052-.39052 1.02367 0 1.41417l2.80004 2.8001c.39052.3905 1.02369.3905 1.41421 0l5.65687-5.65688c.3905-.39052.3905-1.02369 0-1.41421-.3905-.39053-1.0237-.39053-1.4142 0z" fill="#000" fill-rule="evenodd"/></svg>

<svg width="20" height="20" viewBox="0 0 20 20" fill="none" xmlns="http://www.w3.org/2000/svg">
<path fill-rule="evenodd" clip-rule="evenodd" d="M10 0C4.5 0 0 4.5 0 10C0 15.5 4.5 20 10 20C15.5 20 20 15.5 20 10C20 4.5 15.5 0 10 0ZM8.66052 11.4142L6.56759 9.32123C6.17707 8.9307 5.54391 8.9307 5.15338 9.32123C4.76286 9.71175 4.76286 10.3449 5.15338 10.7354L7.95342 13.5355C8.34394 13.926 8.97711 13.926 9.36763 13.5355L15.0245 7.87862C15.415 7.4881 15.415 6.85493 15.0245 6.46441C14.634 6.07388 14.0008 6.07388 13.6103 6.46441L8.66052 11.4142Z" fill="black"/>
</svg>
